www/assets/icons/align_vertical_bottom.svg

<svg xmlns="http://www.w3.org/2000/svg" width="24" height="24" viewBox="0 0 24 24" fill='currentColor'><path d="M22 22H2v-2h20zM10 2H7v16h3zm7 6h-3v10h3z"/></svg>

<svg width="24" height="24" viewBox="0 0 24 24" xmlns="http://www.w3.org/2000/svg" fill='currentColor'><path d="M22 22H2V20H22V22ZM10 2H7V18H10V2ZM17 8H14V18H17V8Z"/></svg>
